X: 47
T:Finale. HS.47
M:6/8
C:"Set of Quadrilles,No5"
S:Henry Stables MS,Cumbria,late19thC
R:Quadrille
O:Walthwaite,nr.Ambleside.
A:England
Z:vmp.Chris Partington
K:D
A|d3 fed|cdeg3|fed Bge|d3c2A|!
d3fed|cdeg3|fed edc|d3-d2:|!
f/g/|a2AA2f|g2AA2g|fdf afd|e2f ged|!
a2AA2f|g2AA2g|fed edc|d3-d2||!
f/g/|a2ff2a|g2ee2g|fdf afd|e2f gfe|!
a2ff2a|g2ee2g|fed edc|d3-d2||
